symbols/web/5k/materialsymbolsoutlined/5k_wght300fill1_48px.svg

<svg xmlns="http://www.w3.org/2000/svg" height="48" width="48"><path d="M25.9 29.7h2v-4.6l4.55 4.6h2.8l-5.7-5.75 5.7-5.65H32.5l-4.6 4.6v-4.6h-2Zm-12.65 0h6.5q.65 0 1.075-.45.425-.45.425-1.05v-3.45q0-.6-.425-1.05-.425-.45-1.075-.45h-4.5v-2.9h6V18.3h-8v6.45h6v2.9h-6ZM9.9 41q-1.2 0-2.05-.85Q7 39.3 7 38.1V9.9q0-1.2.85-2.05Q8.7 7 9.9 7h28.2q1.2 0 2.05.85.85.85.85 2.05v28.2q0 1.2-.85 2.05-.85.85-2.05.85Z"/></svg>

<svg xmlns="http://www.w3.org/2000/svg" height="48" width="48"><path d="M25.9 29.7H27.9V25.1L32.45 29.7H35.25L29.55 23.95L35.25 18.3H32.5L27.9 22.9V18.3H25.9ZM13.25 29.7H19.75Q20.4 29.7 20.825 29.25Q21.25 28.8 21.25 28.2V24.75Q21.25 24.15 20.825 23.7Q20.4 23.25 19.75 23.25H15.25V20.35H21.25V18.3H13.25V24.75H19.25V27.65H13.25ZM9.9 41Q8.7 41 7.85 40.15Q7 39.3 7 38.1V9.9Q7 8.7 7.85 7.85Q8.7 7 9.9 7H38.1Q39.3 7 40.15 7.85Q41 8.7 41 9.9V38.1Q41 39.3 40.15 40.15Q39.3 41 38.1 41Z"/></svg>
